!!!OTL: St. Georg
!!!ARE: Europa, Mitteleuropa, Deutschland
!!!SCT: A0612
!!!YEM: Copyright 1995, estate of Helmut Schaffrath.
**kern
*ICvox
*Ivox
*M4/2
*k[b-e-]
*g:
{4b-
4a
=1
2g
2dd
4.cc
8dd
2ee-
=2
1dd
2r}
{4b-
4a
=3
2g
2dd
4.cc
8dd
2ee-
=4
1dd
2dd}
{4ee
4ffn
=5
2gg
4dd
4dd
4.cc
8b-
4cc
4dd
=6
1b-
2r}
{4ffn
4ffn
=7
2gg
4.dd
8cc
4b-
4b-
4cc
4cc
=8
1dd
2r}
{4b-
4a
=9
4g
4a
2b-
4cc
4a
2g
=10
4dd
4dd
2cc
8g
8a
8b-
8cc
4a
4a
=11
1g
2r}
==
!!!AGN: Romanze, Ballade, Lied, religioeses Lied
!! WK II No. 1235 (nach Altkoelnischer Volksgesang Gsgb 1625)
!!!ONB: ESAC (Essen Associative Code) Database: ALTDEU
!!!AMT: simple quadruple
!!!AIN: vox
!!!EED: Helmut Schaffrath
!!!EEV: 1.0
*-
